X:1
T:O Help of Christians
A:P J Brennan
O:Australia?
Z:abc-transcription www.GodSongs.net
L:1/4
M:4/4
K:Ab
E | FEFA | AGA ","yy A | GA F>E       | E3 E |
    FEFA | BcB       E | FA A G       | A3 c |
    BABc | ABB       A | GA F>E       | E3 E |
    FEAF | ABc       A | Bcd "^,"yy c  | B3 A | A3 ]

